src/pos-icons/account-key-outline.svg

<svg height="24" viewBox="0 0 24 24" width="24" xmlns="http://www.w3.org/2000/svg"><path d="m5.83 10c-.41-1.17-1.52-2-2.83-2a3 3 0 0 0 -3 3 3 3 0 0 0 3 3c1.31 0 2.42-.83 2.83-2h2.17v2h2v-2h1v-2zm-2.83 2a1 1 0 0 1 -1-1 1 1 0 0 1 1-1 1 1 0 0 1 1 1 1 1 0 0 1 -1 1m13-8a4 4 0 0 0 -4 4 4 4 0 0 0 4 4 4 4 0 0 0 4-4 4 4 0 0 0 -4-4m0 6.1a2.1 2.1 0 0 1 -2.1-2.1 2.1 2.1 0 0 1 2.1-2.1c1.16 0 2.1.94 2.1 2.1s-.94 2.1-2.1 2.1m0 2.9c-2.67 0-8 1.33-8 4v3h16v-3c0-2.67-5.33-4-8-4m6.1 5.1h-12.2v-1.1c0-.64 3.1-2.1 6.1-2.1 2.97 0 6.1 1.46 6.1 2.1z"/></svg>

<?xml version="1.0" encoding="UTF-8"?><!DOCTYPE svg PUBLIC "-//W3C//DTD SVG 1.1//EN" "http://www.w3.org/Graphics/SVG/1.1/DTD/svg11.dtd"><svg xmlns="http://www.w3.org/2000/svg" xmlns:xlink="http://www.w3.org/1999/xlink" version="1.1" id="mdi-account-key-outline" width="24" height="24" viewBox="0 0 24 24"><path d="M5.83,10C5.42,8.83 4.31,8 3,8A3,3 0 0,0 0,11A3,3 0 0,0 3,14C4.31,14 5.42,13.17 5.83,12H8V14H10V12H11V10H5.83M3,12A1,1 0 0,1 2,11A1,1 0 0,1 3,10A1,1 0 0,1 4,11A1,1 0 0,1 3,12M16,4A4,4 0 0,0 12,8A4,4 0 0,0 16,12A4,4 0 0,0 20,8A4,4 0 0,0 16,4M16,10.1A2.1,2.1 0 0,1 13.9,8A2.1,2.1 0 0,1 16,5.9C17.16,5.9 18.1,6.84 18.1,8C18.1,9.16 17.16,10.1 16,10.1M16,13C13.33,13 8,14.33 8,17V20H24V17C24,14.33 18.67,13 16,13M22.1,18.1H9.9V17C9.9,16.36 13,14.9 16,14.9C18.97,14.9 22.1,16.36 22.1,17V18.1Z" /></svg>
